X:134
T: HOPP HOPP HOPP MEIN KINDCHEN
N: F0256
O: Europa, Mitteleuropa, Deutschland
R: Jugend - Lied, Kinder, Spiel, Kniereiter - Lied
M: 2/4
L: 1/8
K: Eb
 | EGBc | B2e
E | EGBc | B2e
B | fdBA | GBe
B | fdBA | GBE2 |
ABcd | ez2
B | AGAF | E2z2

@@@ Tune index: 5565
